icons/solid/cloud-upload.svg

<svg width="24" height="24" viewBox="0 0 24 24" fill="none" xmlns="http://www.w3.org/2000/svg">
<path fill-rule="evenodd" clip-rule="evenodd" d="M6.91301 7.02868C7.75078 5.77217 9.62609 4 12.5 4C14.6295 4 16.1507 5.07973 17.1069 6.33005C17.7761 7.20524 18.2051 8.20886 18.3919 9.07502C19.1771 9.20223 20.0868 9.50524 20.8968 10.0885C22.0918 10.9489 23 12.3741 23 14.5C23 16.6259 22.0918 18.0511 20.8968 18.9115C19.7528 19.7352 18.41 20 17.5 20H13V13.4142L14.2929 14.7071C14.6834 15.0976 15.3166 15.0976 15.7071 14.7071C16.0976 14.3166 16.0976 13.6834 15.7071 13.2929L12.7071 10.2929C12.3166 9.90237 11.6834 9.90237 11.2929 10.2929L8.29289 13.2929C7.90237 13.6834 7.90237 14.3166 8.29289 14.7071C8.68342 15.0976 9.31658 15.0976 9.70711 14.7071L11 13.4142V20H7.5C6.42331 20 4.83054 19.6852 3.4782 18.7115C2.07487 17.7011 1 16.0259 1 13.5C1 10.9741 2.07487 9.29886 3.4782 8.28847C4.60179 7.47948 5.89136 7.12534 6.91301 7.02868Z" fill="currentColor"/>
</svg>

<svg width="24" height="24" fill="none" xmlns="http://www.w3.org/2000/svg"><path fill-rule="evenodd" clip-rule="evenodd" d="M6.913 7.029C7.751 5.772 9.626 4 12.5 4c2.13 0 3.65 1.08 4.607 2.33a7.133 7.133 0 011.285 2.745c.785.127 1.695.43 2.505 1.014C22.092 10.948 23 12.373 23 14.5c0 2.126-.908 3.551-2.103 4.412C19.753 19.735 18.41 20 17.5 20H13v-6.586l1.293 1.293a1 1 0 001.414-1.414l-3-3a1 1 0 00-1.414 0l-3 3a1 1 0 101.414 1.414L11 13.414V20H7.5c-1.077 0-2.67-.315-4.022-1.288C2.075 17.701 1 16.026 1 13.5s1.075-4.201 2.478-5.212c1.124-.809 2.413-1.163 3.435-1.26z" fill="currentColor"/></svg>
